src/assets/images/instagram.svg

<svg height="28" viewBox="0 0 28 28" width="28" xmlns="http://www.w3.org/2000/svg"><path d="m14.7704038 5.25047391.6189509.00157683c1.1666247.00465675 1.5089658.01824188 2.218259.05060494.9313354.04247833 1.5674043.19040729 2.1239688.40672552.5753898.22357745 1.0633561.52276875 1.5498292 1.00920713.4864384.48647302.7856297.97443938 1.0092421 1.54982917.2162832.55656453.3642122 1.19263339.4066905 2.1239688.0102199.2239873.0185673.4113811.0253522.5996955l.0062756.1900108c.0124444.4159002.0181203.8940816.020127 1.8093795l.000427 1.7789317c-.0024117 1.6866162-.0147088 2.0159231-.0521818 2.8372099-.0424783.9313354-.1904073 1.5674043-.4066905 2.1239688-.2236124.5753898-.5228037 1.0633561-1.0092421 1.5498292-.4864731.4864384-.9744394.7856297-1.5498292 1.0092421-.5565645.2162832-1.1926334.3642122-2.1239688.4066905-.7756598.0353912-1.1124856.0483261-2.5683578.0516857l-1.8096358.0004961c-1.0733164-.0015347-1.596969-.0070726-2.0475275-.020554l-.1900108-.0062756c-.1883144-.0067849-.3757082-.0151323-.5996955-.0253522-.93133541-.0424783-1.56740427-.1904073-2.1239688-.4066905-.57538979-.2236124-1.06335615-.5228037-1.54982917-1.0092421-.48643838-.4864731-.78562968-.9744394-1.00920713-1.5498292-.21631823-.5565645-.36424719-1.1926334-.40672552-2.1239688-.03236306-.7092932-.04594819-1.0516343-.05060494-2.218259l-.00157683-.6189509v-1.5407837l.00157683-.6189594c.00269601-.6754232.00838464-1.0745579.01897721-1.4285681l.00627559-.1900108c.0067849-.1883144.01513222-.3757082.02535214-.5996955.04247833-.93133541.19040729-1.56740427.40672552-2.1239688.22357745-.57538979.52276875-1.06335615 1.00920713-1.54982917.48647302-.48643838.97443938-.78562968 1.54982917-1.00920713.55656453-.21631823 1.19263339-.36424719 2.1239688-.40672552.2239873-.01021992.4113811-.01856724.5996955-.02535214l.1900108-.00627559c.3540102-.01059257.7531449-.0162812 1.4285681-.01897721l.6189594-.00157683zm-.7703862 4.22366402c-2.4995982 0-4.52587967 2.02628147-4.52587967 4.52587967 0 2.499563 2.02628147 4.5258445 4.52587967 4.5258445 2.499563 0 4.5258445-2.0262815 4.5258445-4.5258445 0-2.4995982-2.0262815-4.52587967-4.5258445-4.52587967zm-.0000001 1.60919537c1.6108207 0 2.9166492 1.3058285 2.9166492 2.9166842 0 1.6108207-1.3058285 2.9166492-2.9166492 2.9166492-1.6108557 0-2.9166842-1.3058285-2.9166842-2.9166492 0-1.6108557 1.3058285-2.9166842 2.9166842-2.9166842zm4.6264008-2.81609192c-.6109738 0-1.1063034.49532995-1.1063034 1.10634028s.4953296 1.10630344 1.1063034 1.10630344c.6110104 0 1.1063403-.49529311 1.1063403-1.10630344s-.4953299-1.10634028-1.1063403-1.10634028z" fill="#9f9f9f"/></svg>

<?xml version="1.0" encoding="UTF-8"?>
<svg width="28px" height="28px" viewBox="0 0 28 28" version="1.1" xmlns="http://www.w3.org/2000/svg" xmlns:xlink="http://www.w3.org/1999/xlink">
    <title>Group</title>
    <g id="Design" stroke="none" stroke-width="1" fill="none" fill-rule="evenodd">
        <g id="ГЛАВНАЯ" transform="translate(-1251.000000, -6507.000000)" fill="#9F9F9F" fill-rule="nonzero">
            <g id="Group-54" transform="translate(0.000000, 6379.000000)">
                <g id="Group-26" transform="translate(1095.000000, 128.000000)">
                    <g id="Group" transform="translate(156.000000, 0.000000)">
                        <path d="M14.7704038,5.25047391 L15.3893547,5.25205074 C16.5559794,5.25670749 16.8983205,5.27029262 17.6076137,5.30265568 C18.5389491,5.34513401 19.175018,5.49306297 19.7315825,5.7093812 C20.3069723,5.93295865 20.7949386,6.23214995 21.2814117,6.71858833 C21.7678501,7.20506135 22.0670414,7.69302771 22.2906538,8.2684175 C22.506937,8.82498203 22.654866,9.46105089 22.6973443,10.3923863 C22.7075642,10.6163736 22.7159116,10.8037674 22.7226965,10.9920818 L22.7289721,11.1820926 C22.7414165,11.5979928 22.7470924,12.0761742 22.7490991,12.9914721 L22.7495261,14.7704038 C22.7471144,16.45702 22.7348173,16.7863269 22.6973443,17.6076137 C22.654866,18.5389491 22.506937,19.175018 22.2906538,19.7315825 C22.0670414,20.3069723 21.7678501,20.7949386 21.2814117,21.2814117 C20.7949386,21.7678501 20.3069723,22.0670414 19.7315825,22.2906538 C19.175018,22.506937 18.5389491,22.654866 17.6076137,22.6973443 C16.8319539,22.7327355 16.4951281,22.7456704 15.0392559,22.74903 L13.2296201,22.7495261 C12.1563037,22.7479914 11.6326511,22.7424535 11.1820926,22.7289721 L10.9920818,22.7226965 C10.8037674,22.7159116 10.6163736,22.7075642 10.3923863,22.6973443 C9.46105089,22.654866 8.82498203,22.506937 8.2684175,22.2906538 C7.69302771,22.0670414 7.20506135,21.7678501 6.71858833,21.2814117 C6.23214995,20.7949386 5.93295865,20.3069723 5.7093812,19.7315825 C5.49306297,19.175018 5.34513401,18.5389491 5.30265568,17.6076137 C5.27029262,16.8983205 5.25670749,16.5559794 5.25205074,15.3893547 L5.25047391,14.7704038 L5.25047391,13.2296201 L5.25047391,13.2296201 L5.25205074,12.6106607 C5.25474675,11.9352375 5.26043538,11.5361028 5.27102795,11.1820926 L5.27730354,10.9920818 C5.28408844,10.8037674 5.29243576,10.6163736 5.30265568,10.3923863 C5.34513401,9.46105089 5.49306297,8.82498203 5.7093812,8.2684175 C5.93295865,7.69302771 6.23214995,7.20506135 6.71858833,6.71858833 C7.20506135,6.23214995 7.69302771,5.93295865 8.2684175,5.7093812 C8.82498203,5.49306297 9.46105089,5.34513401 10.3923863,5.30265568 C10.6163736,5.29243576 10.8037674,5.28408844 10.9920818,5.27730354 L11.1820926,5.27102795 C11.5361028,5.26043538 11.9352375,5.25474675 12.6106607,5.25205074 L13.2296201,5.25047391 L14.7704038,5.25047391 L14.7704038,5.25047391 Z M14.0000176,9.47413793 C11.5004194,9.47413793 9.47413793,11.5004194 9.47413793,14.0000176 C9.47413793,16.4995806 11.5004194,18.5258621 14.0000176,18.5258621 C16.4995806,18.5258621 18.5258621,16.4995806 18.5258621,14.0000176 C18.5258621,11.5004194 16.4995806,9.47413793 14.0000176,9.47413793 Z M14.0000175,11.0833333 C15.6108382,11.0833333 16.9166667,12.3891618 16.9166667,14.0000175 C16.9166667,15.6108382 15.6108382,16.9166667 14.0000175,16.9166667 C12.3891618,16.9166667 11.0833333,15.6108382 11.0833333,14.0000175 C11.0833333,12.3891618 12.3891618,11.0833333 14.0000175,11.0833333 Z M18.6264183,8.26724138 C18.0154445,8.26724138 17.5201149,8.76257133 17.5201149,9.37358166 C17.5201149,9.98459199 18.0154445,10.4798851 18.6264183,10.4798851 C19.2374287,10.4798851 19.7327586,9.98459199 19.7327586,9.37358166 C19.7327586,8.76257133 19.2374287,8.26724138 18.6264183,8.26724138 Z" id="Combined-Shape"></path>
                    </g>
                </g>
            </g>
        </g>
    </g>
</svg>
